X:1
T:Starter Boogie
T:Starter Boogie
T:Etude No. 4, 14.5.2015
T:thomasgl
C:thomasgl
%%score { 1 | 2 }
L:1/8
Q:1/4=106
M:4/4
K:C
V:1 treble nm="Klavier" snm="Pno."
V:2 bass 
V:1
"C" [Ec]>[Ec]"Am" [Ec]>[Ec]"C7" [Ec]>[Ec]"Am" [Ec]>[Ec] | %1
"C" [Ec]>[Ec]"Am" [Ec]>[Ec]"C7" [Ec]>[Ec]"Am" [Ec]>[Ec] | %2
"C" [Ec]>[Ec]"Am" [Ec]>[Ec]"C7" [Ec]>[Ec]"Am" [Ec]>[Ec] | %3
"C" [Ec]>[Ec]"Am" [Ec]>[Ec]"C7" [Ec]>[Ec]"Am" [Ec]>[Ec] | %4
"F" [Af]>[Af]"Dm" [Af]>[Af]"F7" [Af]>[Af]"Dm" [Af]>[Af] | %5
"F" [Af]>[Af]"Dm" [Af]>[Af]"F7" [Af]>[Af]"Dm" [Af]>[Af] | %6
"C" [Ec]>[Ec]"Am" [Ec]>[Ec]"C7" [Ec]>[Ec]"Am" [Ec]>[Ec] | %7
"C" [Ec]>[Ec]"Am" [Ec]>[Ec]"C7" [Ec]>[Ec]"Am" [Ec]>[Ec] | %8
"G" [Bg]>[Bg]"Em" [Bg]>[Bg]"G7" [Bg]>[Bg]"Em" [Bg]>[Bg] | %9
"F" [Af]>[Af]"Dm" [Af]>[Af]"F7" [Af]>[Af]"Dm" [Af]>[Af] | %10
"C" [Ec]>[Ec]"Am" [Ec]>[Ec]"C7" [Ec]>[Ec]"Am" [Ec]>[Ec] |1"C" [Ec]>[Ec] z4 z2 :|2 %12
"C" [Ec]>[Ec]"C7" E/4c/4E/4c/4E/4c/4E/4c/4 E/4c/4E/4c/4E/4c/4E/4c/4 z2 |] %13
V:2
 [C,,G,,]>[C,,G,,] [C,,A,,]>[C,,A,,] [C,,_B,,]>[C,,B,,] [C,,A,,]>[C,,A,,] | %1
 [C,,G,,]>[C,,G,,] [C,,A,,]>[C,,A,,] [C,,_B,,]>[C,,B,,] [C,,A,,]>[C,,A,,] | %2
 [C,,G,,]>[C,,G,,] [C,,A,,]>[C,,A,,] [C,,_B,,]>[C,,B,,] [C,,A,,]>[C,,A,,] | %3
 [C,,G,,]>[C,,G,,] [C,,A,,]>[C,,A,,] [C,,_B,,]>[C,,B,,] [C,,A,,]>[C,,A,,] | %4
 [F,,C,]>[F,,C,] [F,,D,]>[F,,D,] [F,,_E,]>[F,,E,] [F,,D,]>[F,,D,] | %5
 [F,,C,]>[F,,C,] [F,,D,]>[F,,D,] [F,,_E,]>[F,,E,] [F,,D,]>[F,,D,] | %6
 [C,,G,,]>[C,,G,,] [C,,A,,]>[C,,A,,] [C,,_B,,]>[C,,B,,] [C,,A,,]>[C,,A,,] | %7
 [C,,G,,]>[C,,G,,] [C,,A,,]>[C,,A,,] [C,,_B,,]>[C,,B,,] [C,,A,,]>[C,,A,,] | %8
 [G,,D,]>[G,,D,] [G,,E,]>[G,,E,] [G,,F,]>[G,,F,] [G,,E,]>[G,,E,] | %9
 [F,,C,]>[F,,C,] [F,,D,]>[F,,D,] [F,,_E,]>[F,,E,] [F,,D,]>[F,,D,] | %10
 [C,,G,,]>[C,,G,,] [C,,A,,]>[C,,A,,] [C,,_B,,]>[C,,B,,] [C,,A,,]>[C,,A,,] |1 %11
 [C,,G,,]>[C,,G,,] [C,,_B,,]4 z2 :|2 [C,,G,,]>[C,,G,,] [C,,_B,,]4 z2 |] %13

